src/lib/packages/icons/src/assets/filled/comment-question.svg

<svg width="24" height="24" viewBox="0 0 24 24" fill="none" xmlns="http://www.w3.org/2000/svg">
<path d="M12 4C7.03 4 3 6.99998 3 12.001C3 14.121 3.72995 15.8919 4.94995 17.2119C4.79995 18.1719 4.25992 19.2721 3.16992 20.1521C2.83992 20.4321 3.02996 20.9819 3.45996 20.9919C4.87996 21.0419 7.06991 20.8521 8.40991 19.4221C9.50991 19.8021 10.72 20.002 12 20.002C16.97 20.002 21 17.002 21 12.001C21 6.99998 16.97 4 12 4ZM12.02 16.5C11.468 16.5 11.0149 16.052 11.0149 15.5C11.0149 14.948 11.458 14.5 12.01 14.5H12.02C12.573 14.5 13.02 14.948 13.02 15.5C13.02 16.052 12.572 16.5 12.02 16.5ZM13.3459 12.551C12.7889 12.92 12.713 13.108 12.71 13.115C12.597 13.417 12.3051 13.6111 11.9971 13.6111C11.9151 13.6111 11.833 13.5971 11.752 13.5681C11.367 13.4311 11.1581 13.022 11.2891 12.634C11.4921 12.033 12.0859 11.585 12.5149 11.301C13.1509 10.878 13.1579 10.4489 13.1079 10.1639C13.0299 9.72294 12.6529 9.34494 12.2109 9.26794C11.8749 9.20694 11.5381 9.29396 11.2781 9.51196C11.0221 9.72696 10.876 10.041 10.876 10.374C10.876 10.788 10.54 11.124 10.126 11.124C9.71198 11.124 9.37598 10.788 9.37598 10.374C9.37598 9.59602 9.71796 8.86304 10.314 8.36304C10.91 7.86304 11.6939 7.65204 12.4709 7.79004C13.5299 7.97604 14.399 8.84505 14.585 9.90405C14.769 10.9571 14.3289 11.896 13.3459 12.551Z" fill="currentColor"/>
</svg>

<svg xmlns="http://www.w3.org/2000/svg" width="24" height="24" fill="none"><path fill="currentColor" d="M12 4c-4.97 0-9 3-9 8.001 0 2.12.73 3.89 1.95 5.21-.15.96-.69 2.061-1.78 2.941-.33.28-.14.83.29.84 1.42.05 3.61-.14 4.95-1.57 1.1.38 2.31.58 3.59.58 4.97 0 9-3 9-8.001C21 7 16.97 4 12 4Zm.02 12.5a1.005 1.005 0 0 1-1.005-1c0-.552.443-1 .995-1h.01a1 1 0 1 1 0 2Zm1.326-3.949c-.557.369-.633.557-.636.564a.767.767 0 0 1-.713.496.724.724 0 0 1-.245-.043.739.739 0 0 1-.463-.934c.203-.601.797-1.049 1.226-1.333.636-.423.643-.852.593-1.137a1.126 1.126 0 0 0-2.232.21.75.75 0 0 1-1.5 0 2.628 2.628 0 0 1 3.095-2.584 2.645 2.645 0 0 1 2.114 2.114c.184 1.053-.256 1.992-1.24 2.647Z"/></svg>
